X:244
T:The Pig Town
R:Reel
B:Kerr's Second p29
S:Kerr's Second p29
Z:Transcription, chords:Mike Long
M:C|
L:1/8
K:G
"G"G2ge d2ed|"G"B2ge "D"dBAB|"G"G2ge d2ed|[1 "D"BGAG "Em"EFGA:|[2 "D"BGAG "G"G2z2|]\
"Em"B2e2 efge|
"D"fedf "Em"edBA|"Em"B2e2 efge|"D"fgaf "C"g2ed|\
"Em"B2e2 efge|"D"fedf "Em"edBA|"Em"B2e2 efge|"D"fgaf "G"g2z2|]
